!!!OTL: Graserin und Reiter Ich hoer mir ein Sichelein rauschen,
!!!ARE: Europa, Mitteleuropa, Deutschland / France, Lothringen
!!!YOR: 7, S. 150
!!    1926 gedruckt in Heidelberg
!!!SCT: Q1149M
!!!YEM: Copyright 1995, estate of Helmut Schaffrath.
**kern
*ICvox
*Ivox
*M6/8
*k[b-e-]
*g:
{8g
=1
8g
8g
8g
8a
8b-
8cc
=2
4.dd
4a}
{8a
=3
4dd
8dd
8dd
8cc
8b-
=4
4.a
4r}
{8dd
=5
4cc
8a
8b-
8a
8g
=6
4.cc
4dd}
{8g
=7
8g
8a
8b-
8dd
8b-
8a
=8
4.g
4r}
==
!!!AGN: ???
!! Melodievergleich zu Q0149K u.a., anderes Lied.
!!!ONB: ESAC (Essen Associative Code) Database: BALLADE
!!!AMT: compound duple
!!!AIN: vox
!!!EED: Helmut Schaffrath
!!!EEV: 1.0
*-
